svgs/sharp-light/thumbtack.svg

<svg xmlns="http://www.w3.org/2000/svg" viewBox="0 0 384 512"><!--! Font Awesome Pro 6.6.0 by @fontawesome - https://fontawesome.com License - https://fontawesome.com/license (Commercial License) Copyright 2024 Fonticons, Inc. --><path d="M280 209.7l11.9 8.7c21.2 15.5 36.6 35.9 46.6 55c5 9.5 8.5 18.4 10.7 25.6c1.1 3.6 1.8 6.7 2.3 9c.2 1.2 .3 2.1 .4 2.8c0 .4 .1 .6 .1 .8l0 .2c0 0 0 0 0 .1c0 0 0 0 0 0s0 0 0 0s0 0 0 0c0 0 0 0 0 0l0 8-144 0 0-96 0-16-32 0 0 16 0 96L32 320l0-8s0 0 0 0c0-6 3.2-22 13.5-41.6c9.9-18.9 25.1-38.5 46.2-53.3l12.4-8.7 1.2-15.1L117.6 32l148.7 0 12.5 163 1.1 14.7zM208 352l144 0 32 0 0-32 0-8c0-21.3-21.3-81.6-73.2-119.5L298.5 32 320 32l16 0 0-32L320 0 296 0 88 0 64 0 48 0l0 32 16 0 21.5 0L73.3 191C21.3 227.5 0 286.4 0 312l0 8 0 32 32 0 144 0 0 144 0 16 32 0 0-16 0-144z"/></svg>

<svg xmlns="http://www.w3.org/2000/svg" viewBox="0 0 384 512"><!--! Font Awesome Pro 6.4.2 by @fontawesome - https://fontawesome.com License - https://fontawesome.com/license (Commercial License) Copyright 2023 Fonticons, Inc. --><path d="M280 209.7l11.9 8.7c21.2 15.5 36.6 35.9 46.6 55c5 9.5 8.5 18.4 10.7 25.6c1.1 3.6 1.8 6.7 2.3 9c.2 1.2 .3 2.1 .4 2.8c0 .4 .1 .6 .1 .8l0 .2 0 .1 0 0 0 0v0c0 0 0 0 0 0v8H208V224 208H176v16 96H32v-8 0c0-6 3.2-22 13.5-41.6c9.9-18.9 25.1-38.5 46.2-53.3l12.4-8.7 1.2-15.1L117.6 32H266.4l12.5 163 1.1 14.7zM208 352H352h32V320v-8c0-21.3-21.3-81.6-73.2-119.5L298.5 32H320h16V0H320 296 88 64 48V32H64 85.5L73.3 191C21.3 227.5 0 286.4 0 312v8 32H32 176V496v16h32V496 352z"/></svg>
